src/images/app-icons/dark-theme/CommunityHealthCoach.svg

<svg xmlns="http://www.w3.org/2000/svg" xmlns:xlink="http://www.w3.org/1999/xlink" viewBox="0 0 32 32"><defs><linearGradient id="CommunityHealthCoach_svg__a" x1="8" y1="26.5" x2="17" y2="26.5" gradientUnits="userSpaceOnUse"><stop offset="0" stop-opacity="0"/><stop offset=".9"/></linearGradient><linearGradient id="CommunityHealthCoach_svg__b" x1="802" y1="7441.5" x2="811" y2="7441.5" gradientTransform="translate(-789 -7436)" xlink:href="#CommunityHealthCoach_svg__a"/><linearGradient id="CommunityHealthCoach_svg__d" y1="16" x2="32" y2="16" gradientUnits="userSpaceOnUse"><stop offset=".1" stop-color="#ff7eb6"/><stop offset=".9" stop-color="#4589ff"/></linearGradient><mask id="CommunityHealthCoach_svg__c" x="0" y="0" width="32" height="32" maskUnits="userSpaceOnUse"><path d="M28 12h-2v-1a5.006 5.006 0 00-5-5h-7V4h7a7.008 7.008 0 017 7zM16 28h-5a7.008 7.008 0 01-7-7v-1h2v1a5.006 5.006 0 005 5h5z" fill="#fff"/><path fill="url(#CommunityHealthCoach_svg__a)" d="M8 24h9v5H8z"/><path transform="rotate(180 17.5 5.5)" fill="url(#CommunityHealthCoach_svg__b)" d="M13 3h9v5h-9z"/></mask></defs><g data-name="Layer 2"><g data-name="Dark theme icons"><g mask="url(#CommunityHealthCoach_svg__c)"><path fill="url(#CommunityHealthCoach_svg__d)" d="M0 0h32v32H0z"/></g><path d="M28.766 18.116A4.212 4.212 0 0023 17.893a4.212 4.212 0 00-5.766.223 4.319 4.319 0 000 6.045L23 30l5.764-5.839a4.319 4.319 0 00.002-6.045zm-1.424 4.639L23 27.153l-4.34-4.4a2.308 2.308 0 010-3.233 2.263 2.263 0 013.156 0L23 20.729l1.181-1.207a2.263 2.263 0 013.156 0 2.308 2.308 0 01.005 3.233zM2 14v2h2v-2a1 1 0 011-1h6a1 1 0 011 1v2h2v-2a3 3 0 00-3-3H5a3 3 0 00-3 3zM8 2a4 4 0 104 4 4 4 0 00-4-4zm0 6a2 2 0 112-2 2 2 0 01-2 2z" fill="#f4f4f4"/></g></g></svg>

<svg xmlns="http://www.w3.org/2000/svg" xmlns:xlink="http://www.w3.org/1999/xlink" viewBox="0 0 32 32"><defs><style>.cls-1{fill:#fff;}.cls-2{fill:url(#linear-gradient);}.cls-3{fill:url(#linear-gradient-2);}.cls-4{mask:url(#mask);}.cls-5{fill:url(#linear-gradient-3);}.cls-6{fill:#f4f4f4;}</style><linearGradient id="linear-gradient" x1="8" y1="26.5" x2="17" y2="26.5" gradientUnits="userSpaceOnUse"><stop offset="0" stop-opacity="0"/><stop offset="0.9"/></linearGradient><linearGradient id="linear-gradient-2" x1="802" y1="7441.5" x2="811" y2="7441.5" gradientTransform="translate(-789 -7436)" xlink:href="#linear-gradient"/><mask id="mask" x="0" y="0" width="32" height="32" maskUnits="userSpaceOnUse"><path class="cls-1" d="M28,12H26V11a5.006,5.006,0,0,0-5-5H14V4h7a7.008,7.008,0,0,1,7,7Z"/><path class="cls-1" d="M16,28H11a7.008,7.008,0,0,1-7-7V20H6v1a5.006,5.006,0,0,0,5,5h5Z"/><rect class="cls-2" x="8" y="24" width="9" height="5"/><rect class="cls-3" x="13" y="3" width="9" height="5" transform="translate(35 11) rotate(180)"/></mask><linearGradient id="linear-gradient-3" y1="16" x2="32" y2="16" gradientUnits="userSpaceOnUse"><stop offset="0.1" stop-color="#ff7eb6"/><stop offset="0.9" stop-color="#4589ff"/></linearGradient></defs><g id="Layer_2" data-name="Layer 2"><g id="Dark_theme_icons" data-name="Dark theme icons"><g class="cls-4"><rect class="cls-5" width="32" height="32"/></g><path class="cls-6" d="M28.766,18.116A4.212,4.212,0,0,0,23,17.893a4.212,4.212,0,0,0-5.766.223,4.319,4.319,0,0,0,0,6.045L23,30l0,0,0,0,5.764-5.839A4.319,4.319,0,0,0,28.766,18.116Zm-1.424,4.639L23,27.153l0,0,0,0-4.34-4.4a2.308,2.308,0,0,1,0-3.233,2.263,2.263,0,0,1,3.156,0L23,20.729l0,0,0,0,1.181-1.207a2.263,2.263,0,0,1,3.156,0A2.308,2.308,0,0,1,27.342,22.755Z"/><path class="cls-6" d="M2,14v2H4V14a1,1,0,0,1,1-1h6a1,1,0,0,1,1,1v2h2V14a3,3,0,0,0-3-3H5A3,3,0,0,0,2,14Z"/><path class="cls-6" d="M8,2a4,4,0,1,0,4,4A4,4,0,0,0,8,2ZM8,8a2,2,0,1,1,2-2A2,2,0,0,1,8,8Z"/></g></g></svg>
